svg/media/camera_2_off_line.svg

<svg xmlns="http://www.w3.org/2000/svg" width="24" height="24" viewBox="0 0 24 24"><g fill="none" fill-rule="evenodd"><path d="M24,0 L24,24 L0,24 L0,0 L24,0 Z M12.5935,23.2578 L12.5819,23.2595 L12.5109,23.295 L12.4919,23.2987 L12.4767,23.295 L12.4057,23.2595 C12.3958,23.2564 12.387,23.259 12.3821,23.2649 L12.378,23.2758 L12.3609,23.7031 L12.3659,23.7235 L12.3769,23.7357 L12.4805,23.8097 L12.4953,23.8136 L12.5071,23.8097 L12.6107,23.7357 L12.6233,23.7197 L12.6267,23.7031 L12.6096,23.2758 C12.6076,23.2657 12.601,23.2593 12.5935,23.2578 Z M12.8584,23.1453 L12.8445,23.1473 L12.6598,23.2397 L12.6499,23.2499 L12.6472,23.2611 L12.6651,23.6906 L12.6699,23.7034 L12.6784,23.7105 L12.8793,23.8032 C12.8914,23.8069 12.9022,23.803 12.9078,23.7952 L12.9118,23.7812 L12.8777,23.1665 C12.8753,23.1546 12.8674,23.147 12.8584,23.1453 Z M12.143,23.1473 C12.1332,23.1424 12.1222,23.1453 12.1156,23.1526 L12.1099,23.1665 L12.0758,23.7812 C12.0751,23.7927 12.0828,23.8019 12.0926,23.8046 L12.1083,23.8032 L12.3092,23.7105 L12.3186,23.7024 L12.3225,23.6906 L12.3404,23.2611 L12.3372,23.2485 L12.3278,23.2397 L12.143,23.1473 Z"/><path fill="#09244B" d="M2.51494,2.51457 C2.87542923,2.15409 3.44266497,2.12636077 3.83495349,2.43139017 L3.92916,2.51458 L6.41467,5.00012 L6.58579,5.00012 L8,3.58591 C8.33339556,3.25251444 8.77238321,3.04897568 9.23835797,3.00786084 L9.41421,3.00012 L14.5858,3.00012 C15.0572667,3.00012 15.5115877,3.16661481 15.870172,3.46703731 L16,3.58591 L17.4142,5.00012 L20,5.00012 C21.0543909,5.00012 21.9181678,5.81599733 21.9945144,6.85085759 L22,7.00012 L22,19.0001 C22,19.3829 21.8924408,19.7405735 21.7059755,20.0445303 L21.6063,20.1919 L21.9872,20.5729 C22.3778,20.9634 22.3778,21.5966 21.9872,21.9871 C21.6267385,22.3475615 21.0594793,22.3752893 20.6672027,22.0702834 L20.573,21.9871 L2.51493,3.92878 C2.12441,3.53825 2.12442,2.90509 2.51494,2.51457 Z M2.10685,6.35347 L4,8.24663 L4,19.0001 L14.7535,19.0001 L16.7535,21.0001 L4,21.0001 C2.89543,21.0001 2,20.1047 2,19.0001 L2,7.00012 C2,6.77383 2.03758,6.55631 2.10685,6.35347 Z M14.5858,5.00012 L9.41421,5.00012 L8,6.41434 C7.97138,6.44296 7.94197,6.47063 7.91184,6.49732 L9.5532,8.13869 C10.2765,7.73205 11.1112,7.50012 12,7.50012 C14.7614,7.50012 17,9.7387 17,12.5001 C17,13.389 16.7681,14.2237 16.3614,14.947 L20,18.5856 L20,7.00012 L17.4142,7.00012 C16.8838,7.00012 16.3751,6.78941 16,6.41434 L14.5858,5.00012 Z M7.12734,11.374 L9.1301,13.3767 C9.42049,14.3286 10.1715,15.0796 11.1234,15.37 L13.1262,17.3728 C12.7642,17.4561 12.3872,17.5001 12,17.5001 C9.23858,17.5001 7,15.2615 7,12.5001 C7,12.1129 7.04402,11.7359 7.12734,11.374 Z M12,9.50012 C11.673,9.50012 11.3583,9.55243 11.0636,9.64914 L14.851,13.4365 C14.9477,13.1419 15,12.8271 15,12.5001 C15,10.8433 13.6569,9.50012 12,9.50012 Z"/></g></svg>

<svg xmlns="http://www.w3.org/2000/svg" width="24" height="24"><g fill="none" fill-rule="evenodd"><path d="M24 0v24H0V0zM12.594 23.258l-.012.002-.071.035-.02.004-.014-.004-.071-.036c-.01-.003-.019 0-.024.006l-.004.01-.017.428.005.02.01.013.104.074.015.004.012-.004.104-.074.012-.016.004-.017-.017-.427c-.002-.01-.009-.017-.016-.018m.264-.113-.014.002-.184.093-.01.01-.003.011.018.43.005.012.008.008.201.092c.012.004.023 0 .029-.008l.004-.014-.034-.614c-.003-.012-.01-.02-.02-.022m-.715.002a.023.023 0 0 0-.027.006l-.006.014-.034.614c0 .012.007.02.017.024l.015-.002.201-.093.01-.008.003-.011.018-.43-.003-.012-.01-.01z"/><path fill="#09244B" d="M2.515 2.515a1 1 0 0 1 1.32-.084l.094.084L6.415 5h.17L8 3.586a2 2 0 0 1 1.238-.578L9.414 3h5.172a2 2 0 0 1 1.284.467l.13.119L17.414 5H20a2 2 0 0 1 1.995 1.85L22 7v12c0 .383-.108.74-.294 1.045l-.1.147.381.38a1 1 0 0 1-1.32 1.498l-.094-.083L2.515 3.93a1 1 0 0 1 0-1.414m-.408 3.838L4 8.247V19h10.754l2 2H4a2 2 0 0 1-2-2V7c0-.226.038-.444.107-.647M14.586 5H9.414L8 6.414a2.003 2.003 0 0 1-.088.083L9.553 8.14a5 5 0 0 1 6.808 6.808L20 18.586V7h-2.586A2 2 0 0 1 16 6.414zm-7.459 6.374 2.003 2.003a3.007 3.007 0 0 0 1.993 1.993l2.003 2.003a5 5 0 0 1-5.999-5.999M12 9.5c-.327 0-.642.052-.936.15l3.787 3.787A3 3 0 0 0 12 9.5"/></g></svg>
